packages/usa-icon/src/img/material-icons/tty.svg

<svg xmlns="http://www.w3.org/2000/svg" height="24" viewBox="0 0 24 24" width="24"><path fill="none" d="M0 0h24v24H0z"/><path d="M14 4h2v2h-2V4zm-1 3h2v2h-2V7zm-2-3h2v2h-2V4zm7 5h-2V7h2v2zm1-3h-2V4h2v2zm2 3h-2V7h2v2zm1-3h-2V4h2v2zm-7.38 8.38L12.1 16.9c-2.5-1.43-4.57-3.5-6-6l2.52-2.52c.24-.24.34-.58.28-.9L8.16 3.8c-.09-.46-.5-.8-.98-.8H3.03c-.56 0-1.03.47-1 1.03.17 2.89 1.02 5.6 2.4 7.97 1.58 2.73 3.85 4.99 6.57 6.57 2.37 1.37 5.08 2.23 7.97 2.4.56.03 1.03-.44 1.03-1v-4.15c0-.48-.34-.89-.8-.98l-3.67-.73a.99.99 0 0 0-.91.27zM14 10h2v2h-2v-2zm-3 0h2v2h-2v-2zm8 2h-2v-2h2v2zm3 0h-2v-2h2v2z"/></svg>

<svg xmlns="http://www.w3.org/2000/svg" enable-background="new 0 0 24 24" height="24" viewBox="0 0 24 24" width="24"><g><rect fill="none" height="24" width="24" x="0"/><path d="M14,4h2v2h-2V4z M13,7h2v2h-2V7z M11,4h2v2h-2V4z M18,9h-2V7h2V9z M19,6h-2V4h2V6z M21,9h-2V7h2V9z M22,6h-2V4h2V6z M14.62,14.38L12.1,16.9c-2.5-1.43-4.57-3.5-6-6l2.52-2.52C8.86,8.14,8.96,7.8,8.9,7.48L8.16,3.8C8.07,3.34,7.66,3,7.18,3H3.03 C2.47,3,2,3.47,2.03,4.03C2.2,6.92,3.05,9.63,4.43,12c1.58,2.73,3.85,4.99,6.57,6.57c2.37,1.37,5.08,2.23,7.97,2.4 c0.56,0.03,1.03-0.44,1.03-1v-4.15c0-0.48-0.34-0.89-0.8-0.98l-3.67-0.73C15.2,14.04,14.86,14.14,14.62,14.38z M14,10h2v2h-2V10z M11,10h2v2h-2V10z M19,12h-2v-2h2V12z M22,12h-2v-2h2V12z"/></g></svg>
